X: 1
T: Helium Disciples
M: 4/4
L: 1/8
R: reel
K: Cdor
|: BA | B2 FD B,DFD | EB,EF G2 FE | DFBF dFBF | ABcB AFAc | 
BGFD B,DFD | EB,EF G2 FE | DFBF dFBF | ABcA B2 :|
|: FE | DFBF dFBF | E2 BE cEBE | D2 BD cDBD | ABcB AFAc | 
DFBF dFBF | E2 eE dEcE | ABcB AFAc | AFAc B2 :|
